<?xml version="1.0" encoding="UTF-8"?>
<map version="1.10" tiledversion="1.11.2" orientation="orthogonal" renderorder="right-down" width="60" height="30" tilewidth="16" tileheight="16" infinite="0" nextlayerid="12" nextobjectid="1">
 <tileset firstgid="1" source="Tileset_Ground.tsx"/>
 <tileset firstgid="133" source="House_Hay_Stone_1.tsx"/>
 <tileset firstgid="575" source="Props.tsx"/>
 <tileset firstgid="755" source="Trees_Bushes.tsx"/>
 <tileset firstgid="899" source="Tileset_Water.tsx"/>
 <tileset firstgid="1187" source="Tileset_Road.tsx"/>
 <tileset firstgid="1247" source="Rocks.tsx"/>
 <tileset firstgid="1269" source="spr_fencePost.tsx"/>
 <layer id="11" name="Tile Layer 6" width="60" height="30" visible="0">
  <data encoding="csv">
111,109,109,98,98,114,102,113,112,101,112,102,102,97,111,97,113,111,112,109,114,110,98,100,99,102,113,109,109,114,98,112,99,112,109,98,102,109,111,109,111,113,102,113,111,111,114,112,111,111,101,109,101,112,97,111,110,98,109,99,
111,101,97,98,109,98,100,109,99,102,100,101,114,114,102,101,109,100,109,113,100,101,111,98,112,100,112,97,109,100,97,110,110,99,100,112,101,101,114,101,102,109,109,98,109,97,112,97,99,98,97,112,102,109,99,100,97,99,97,101,
113,112,111,112,99,110,97,110,101,113,101,98,112,100,111,114,110,109,113,102,112,97,100,111,101,110,114,99,101,110,100,101,113,109,114,98,111,111,102,99,110,97,98,100,100,112,110,112,113,114,98,98,98,100,101,102,114,100,99,97,
114,109,102,114,98,110,113,111,97,97,111,97,111,102,112,113,114,101,99,114,99,101,98,113,99,97,109,102,110,100,109,109,114,97,112,102,112,110,97,99,112,113,110,110,113,102,98,98,114,100,100,112,113,112,109,109,112,113,99,100,
101,112,110,109,99,109,99,101,97,97,111,99,109,97,112,98,109,111,110,98,97,100,111,113,114,113,111,99,97,97,109,100,101,113,100,109,98,109,101,109,112,100,111,111,114,101,102,114,102,114,101,101,98,111,114,113,114,100,99,114,
113,111,101,114,110,97,110,111,111,102,113,101,111,113,110,114,113,102,112,114,102,110,111,99,99,102,99,112,109,101,97,109,114,100,101,100,100,112,110,112,101,114,101,98,100,110,99,109,101,100,100,101,112,101,100,112,109,109,113,109,
114,101,97,110,98,109,109,112,114,110,114,99,98,99,99,102,111,112,102,97,101,114,114,98,111,98,112,113,99,102,109,109,114,101,114,99,113,97,101,114,99,100,113,114,113,110,113,100,99,113,102,112,99,100,109,110,109,110,101,98,
101,102,111,98,111,111,97,109,112,99,114,100,114,101,100,114,98,110,110,100,111,110,98,101,100,102,101,110,97,99,109,101,113,109,98,102,99,98,111,114,100,109,109,102,101,114,98,112,98,110,97,102,97,114,98,109,99,111,113,98,
110,110,110,100,102,102,109,109,99,111,109,99,112,113,100,97,114,102,110,114,109,110,99,112,110,98,102,109,112,114,101,113,111,97,110,112,100,114,102,102,114,112,111,97,113,98,97,111,101,113,111,111,102,109,99,111,114,112,110,113,
111,97,99,111,102,101,112,101,113,113,98,101,102,113,113,109,98,109,97,100,110,97,101,113,99,112,97,110,97,102,100,113,102,100,113,101,109,112,113,111,111,109,113,113,102,101,102,114,114,98,98,113,98,102,99,113,110,99,101,99,
111,113,110,111,110,100,100,111,100,113,97,114,102,100,101,111,100,99,98,102,97,111,98,102,99,112,114,102,110,109,114,101,100,98,100,110,102,101,101,98,102,101,110,99,101,101,97,102,102,98,97,100,111,100,99,98,98,113,98,98,
111,113,113,109,98,99,99,99,110,101,102,110,113,98,109,100,100,100,112,114,98,109,97,100,101,100,102,100,100,114,101,99,97,110,110,110,99,102,109,113,114,101,99,101,101,97,110,111,112,110,111,101,101,102,109,100,112,99,99,112,
100,114,97,97,112,97,111,99,98,98,111,101,101,101,99,102,101,111,102,101,102,97,112,98,98,111,112,100,102,98,109,99,110,111,113,102,109,101,102,99,102,102,114,109,111,98,111,98,102,113,102,97,109,113,99,112,114,99,111,113,
99,97,100,98,99,112,99,111,109,110,100,97,110,98,102,111,111,99,102,97,112,98,112,110,97,113,102,109,112,101,97,112,97,98,100,110,112,97,114,102,110,112,110,98,111,98,114,102,98,110,113,111,102,110,101,97,99,99,114,114,
111,112,101,102,110,102,109,109,112,109,109,97,102,100,97,113,112,109,99,98,112,98,99,102,112,97,100,113,114,109,97,113,111,97,110,102,99,111,97,97,109,101,112,102,111,110,111,102,101,102,112,98,110,114,101,114,111,110,100,101,
113,97,114,114,99,112,114,97,110,97,99,98,100,98,114,109,98,102,101,97,114,100,109,109,102,112,101,112,112,113,111,101,98,98,112,112,110,110,110,110,109,98,109,113,113,98,97,102,110,98,113,114,99,111,99,113,97,111,114,100,
112,114,110,101,100,114,111,97,110,102,109,110,102,110,98,114,111,102,100,113,114,114,100,111,109,100,102,100,111,98,101,114,111,111,114,112,109,97,110,98,102,101,98,111,114,100,109,97,99,98,101,111,98,99,97,111,111,102,98,112,
114,102,97,99,111,111,99,111,109,110,112,102,99,110,99,101,99,98,101,113,110,98,98,109,111,112,101,97,110,99,114,99,111,113,98,110,102,98,101,113,109,100,109,112,113,111,102,97,97,111,97,111,109,114,114,97,101,111,100,114,
110,99,98,100,114,110,98,100,111,98,113,111,101,100,102,109,114,110,101,109,99,114,114,100,102,112,111,109,100,109,100,109,102,113,99,102,101,114,112,109,114,114,113,99,109,100,113,100,99,100,112,111,113,97,98,98,97,100,109,98,
98,102,101,109,110,102,112,110,98,97,109,98,110,98,102,99,111,97,99,113,102,97,101,98,97,114,102,110,111,102,114,102,99,110,101,110,109,109,111,102,112,110,113,114,102,110,100,110,102,113,97,113,114,111,97,109,109,102,99,97,
111,109,111,113,99,112,109,97,100,112,99,99,112,113,98,113,114,97,109,112,112,98,97,98,97,98,98,99,99,98,113,109,101,101,111,98,112,110,110,100,109,112,102,113,114,113,97,114,101,109,110,100,100,110,102,112,101,102,110,99,
111,110,101,111,111,114,97,102,101,100,100,110,98,99,102,112,97,99,98,113,111,97,102,101,98,98,114,111,114,99,101,97,102,102,100,99,109,99,114,111,114,114,99,110,99,110,110,99,101,113,99,101,98,97,112,101,114,109,97,111,
99,112,101,102,112,114,110,110,111,110,102,102,102,99,112,110,110,99,114,102,101,109,114,99,102,101,111,101,112,112,111,109,111,99,109,113,100,111,112,102,111,114,97,101,98,98,99,111,102,109,114,100,113,101,102,110,98,112,114,97,
100,109,114,112,113,102,98,99,111,112,99,112,99,99,109,102,111,114,112,110,101,110,101,98,100,100,111,112,114,102,101,109,97,112,112,99,110,114,98,102,102,112,97,112,111,102,109,112,100,110,100,99,99,100,113,101,110,113,102,98,
99,97,98,102,98,102,109,110,97,110,97,111,111,111,109,110,101,109,113,111,109,111,114,114,114,110,98,111,109,114,102,98,113,101,113,100,112,109,112,113,111,110,112,114,111,101,114,111,98,102,101,98,110,114,113,109,113,112,101,112,
110,102,102,113,113,112,113,110,100,101,113,110,110,102,111,113,100,102,112,114,101,109,98,111,109,110,112,110,99,102,113,98,99,100,98,113,97,97,114,111,99,109,110,112,110,110,113,97,109,102,100,110,111,110,101,112,114,102,97,99,
97,100,109,110,99,113,111,111,112,113,98,97,113,110,98,113,113,97,101,99,101,100,114,113,99,113,100,101,97,110,102,102,114,112,111,113,109,114,110,114,98,98,99,101,112,113,109,102,113,100,101,113,114,98,98,97,113,102,99,110,
111,100,98,113,111,113,102,111,109,114,111,113,101,100,109,111,99,111,101,100,101,101,100,102,100,111,99,102,114,101,98,112,101,111,101,98,112,111,102,100,98,102,97,112,101,114,109,114,113,102,113,100,113,113,111,97,112,100,112,113,
109,109,109,101,99,98,111,113,97,100,98,98,109,100,99,111,114,109,111,109,99,97,112,101,98,110,97,110,112,97,100,98,101,109,110,100,111,110,112,109,111,112,97,101,109,101,110,112,99,111,110,97,110,111,100,109,98,100,98,98,
99,102,98,109,114,110,114,99,100,112,99,101,110,102,109,111,114,109,101,112,111,98,114,113,99,102,112,101,113,111,99,114,101,112,98,100,111,100,97,109,100,98,109,113,99,110,113,111,111,98,100,99,111,114,99,101,102,111,98,99
</data>
 </layer>
 <layer id="1" name="Tile Layer 1" width="60" height="30" visible="0">
  <data encoding="csv">
0,0,0,0,0,0,0,0,0,0,0,0,0,0,0,0,0,0,0,0,0,0,0,0,0,0,0,0,0,0,0,0,0,0,0,0,0,0,0,0,0,0,0,0,0,0,0,0,0,0,0,0,0,0,0,0,0,0,0,0,
0,0,0,0,0,0,0,0,0,0,0,0,0,0,0,0,0,0,0,0,0,0,0,0,0,0,0,0,0,0,0,0,0,0,0,0,0,0,0,0,0,0,0,0,0,0,0,0,0,0,0,0,0,0,0,0,0,0,0,0,
0,0,0,0,0,0,0,0,0,0,0,0,0,0,0,0,0,0,0,0,0,0,0,0,0,0,0,0,0,0,0,0,0,0,0,0,0,0,0,0,0,0,0,0,0,0,0,0,0,0,0,0,0,0,0,0,0,0,0,0,
0,0,0,0,0,0,0,0,0,0,0,0,0,0,0,0,0,0,0,0,0,0,0,0,0,0,0,0,0,0,0,0,0,0,0,0,0,0,0,0,0,0,0,0,0,0,0,0,0,0,0,0,0,0,0,0,0,0,0,0,
0,0,0,0,0,0,0,0,0,0,0,0,0,0,0,0,0,0,0,0,0,0,0,0,0,0,0,0,0,0,0,0,0,0,0,0,0,0,0,0,0,0,0,0,0,0,0,0,0,0,0,0,0,0,0,0,0,0,0,0,
0,0,0,0,0,0,0,0,0,0,0,0,0,0,0,0,0,0,0,0,0,0,0,0,0,0,0,0,0,0,0,0,0,0,0,0,0,0,0,0,0,0,0,0,0,0,0,0,0,0,0,0,0,0,0,0,0,0,0,0,
0,0,0,0,0,0,0,0,0,0,0,0,0,0,0,0,0,0,0,0,0,0,0,0,0,0,0,0,0,0,0,0,0,0,0,0,0,0,0,0,0,0,0,0,0,0,0,0,0,0,0,0,0,0,0,0,0,0,0,0,
0,0,0,0,0,0,0,0,0,0,0,0,0,0,0,0,0,0,0,0,0,1188,1189,1189,1189,1189,1204,1207,1207,1207,1207,1191,1189,1189,1189,1189,1189,1190,0,0,0,0,0,0,0,0,0,0,0,0,0,0,0,0,0,0,0,0,0,0,
0,0,0,0,0,0,0,0,0,0,0,0,0,0,1188,1189,1189,1189,1189,1189,1189,1227,1201,1201,1201,1201,1202,0,0,0,0,1200,1201,1201,1201,1201,1201,1228,1189,1189,1189,1189,1190,0,0,0,0,0,0,0,0,0,0,0,0,0,0,0,0,0,
0,0,0,0,0,0,0,0,0,0,0,0,1188,1189,1218,1243,1211,1201,1201,1201,1201,1202,0,0,0,0,0,0,0,0,0,0,0,0,0,0,0,1200,1201,1201,1201,1201,1228,1189,1189,1190,0,0,0,0,0,0,0,0,0,0,0,0,0,0,
0,0,0,0,0,636,637,0,0,0,0,1188,1218,1243,1211,1201,1202,0,0,0,0,0,0,0,0,0,0,0,0,0,0,0,0,0,0,0,0,0,0,0,0,0,1200,1201,1201,1201,1237,0,0,0,0,0,0,0,0,0,0,0,0,0,
0,0,0,0,0,654,655,0,0,0,1188,1227,1201,1201,1202,0,0,0,0,0,0,0,0,0,0,0,0,0,0,0,0,0,0,0,0,0,0,0,0,0,0,0,0,0,0,0,0,1190,0,0,0,0,0,0,0,0,0,0,0,0,
1189,1189,1189,1189,1189,1189,1189,1189,1189,1189,1218,1196,0,0,0,0,0,0,0,0,0,0,0,0,0,0,0,0,0,0,0,0,0,0,0,0,0,0,0,0,0,0,0,0,0,0,0,1228,1189,1189,1189,1189,1189,1189,1189,1189,1189,1189,1189,1189,
1243,1243,1243,1235,1243,1241,1241,1235,1235,1243,1236,1196,0,0,0,0,0,0,0,0,0,0,0,0,0,0,0,0,0,0,0,0,0,0,0,0,0,0,0,0,0,0,0,0,0,0,0,1200,1212,1236,1235,1241,1241,1242,1243,1236,1237,1236,1236,1236,
1201,1201,1201,1201,1201,1201,1201,1201,1201,1201,1212,1196,0,0,0,0,0,0,0,0,0,0,0,0,0,0,0,1188,1242,1237,1242,1190,0,0,0,0,0,0,0,0,0,0,0,0,0,0,0,1188,1227,1201,1201,1201,1201,1201,1201,1201,1201,1201,1201,1201,
0,0,0,0,0,0,0,0,0,0,1200,1228,1189,1190,0,0,0,0,0,0,0,0,0,0,0,0,0,1194,1235,1236,1237,1196,0,0,0,0,0,0,0,0,0,0,0,0,0,1188,1189,1227,1202,0,0,0,0,0,0,0,0,0,0,0,
0,0,0,0,0,0,0,0,0,0,0,1200,1201,1228,1189,1190,0,0,0,0,0,0,0,0,0,0,0,1194,1235,1236,1237,1196,0,0,0,0,0,0,0,0,0,0,0,0,0,1194,1236,1196,0,0,0,0,0,0,0,0,0,0,0,0,
0,0,0,0,0,0,0,0,0,0,0,0,0,1200,1201,1228,1190,0,0,0,0,0,0,0,0,0,0,1194,1235,1236,1237,1196,0,0,0,0,0,0,0,0,0,0,1213,1207,1207,1209,1201,1202,0,0,0,0,0,0,0,0,0,0,0,0,
0,0,0,0,0,0,0,0,0,0,0,0,0,0,0,1200,1228,1189,1189,1189,1189,1189,1190,0,0,0,1188,1218,1241,1242,1243,1217,1190,0,0,0,1188,1189,1189,1189,1189,1189,2147484851,0,0,0,0,0,0,0,0,0,0,0,0,0,0,0,0,0,
0,0,0,0,0,0,0,0,0,0,0,0,0,0,0,0,1200,1201,1201,1201,1201,1201,1228,1189,1189,1189,1218,1236,1237,1242,1236,1237,1217,1189,1189,1189,1227,1201,1201,1201,1201,1201,1202,0,0,0,0,0,0,0,0,0,0,0,0,0,0,0,0,0,
0,0,0,0,0,0,0,0,0,0,0,0,0,0,0,0,0,0,0,0,0,0,1200,1201,1201,1201,1201,1201,1201,1201,1201,1201,1201,1201,1201,1201,1202,0,0,0,0,0,0,0,0,0,0,0,0,0,0,0,0,0,0,0,0,0,0,0,
0,0,0,0,0,0,0,0,0,0,0,0,0,0,0,0,0,0,0,0,0,0,0,0,0,0,0,0,0,0,0,0,0,0,0,0,0,0,0,0,0,0,0,0,0,0,0,0,0,0,0,0,0,0,0,0,0,0,0,0,
0,0,0,0,0,0,0,0,0,0,0,0,0,0,0,0,0,0,0,0,0,0,0,0,0,0,0,0,0,0,0,0,0,0,0,0,0,0,0,0,0,0,0,0,0,0,0,0,0,0,0,0,0,0,0,0,0,0,0,0,
0,0,0,0,0,0,0,0,0,0,0,0,0,0,0,0,0,0,0,0,0,0,0,0,0,0,0,0,0,0,0,0,0,0,0,0,0,0,0,0,0,0,0,0,0,0,0,0,0,0,0,0,0,0,0,0,0,0,0,0,
0,0,0,0,0,0,0,0,0,0,0,0,0,0,0,0,0,0,0,0,0,0,0,0,0,0,0,0,0,0,0,0,0,0,0,0,0,0,0,0,0,0,0,0,0,0,0,0,0,0,0,0,0,0,0,0,0,0,0,0,
0,0,0,0,0,0,0,0,0,0,0,0,0,0,0,0,0,0,0,0,0,0,0,0,0,0,0,0,0,0,0,0,0,0,0,0,0,0,0,0,0,0,0,0,0,0,0,0,0,0,0,0,0,0,0,0,0,0,0,0,
0,0,0,0,0,0,0,0,0,0,0,0,0,0,0,0,0,0,0,0,0,0,0,0,0,0,0,0,0,0,0,0,0,0,0,0,0,0,0,0,0,0,0,0,0,0,0,0,0,0,0,0,0,0,0,0,0,0,0,0,
0,0,0,0,0,0,0,0,0,0,0,0,0,0,0,0,0,0,0,0,0,0,0,0,0,0,0,0,0,0,0,0,0,0,0,0,0,0,0,0,0,0,0,0,0,0,0,0,0,0,0,0,0,0,0,0,0,0,0,0,
0,0,0,0,0,0,0,0,0,0,0,0,0,0,0,0,0,0,0,0,0,0,0,0,0,0,0,0,0,0,0,0,0,0,0,0,0,0,0,0,0,0,0,0,0,0,0,0,0,0,0,0,0,0,0,0,0,0,0,0,
0,0,0,0,0,0,0,0,0,0,0,0,0,0,0,0,0,0,0,0,0,0,0,0,0,0,0,0,0,0,0,0,0,0,0,0,0,0,0,0,0,0,0,0,0,0,0,0,0,0,0,0,0,0,0,0,0,0,0,0
</data>
 </layer>
 <layer id="6" name="Tile Layer 2" width="60" height="30">
  <data encoding="csv">
0,0,0,0,0,0,0,0,0,0,0,0,0,0,0,0,0,0,0,0,0,0,0,0,0,0,0,0,0,0,0,0,0,0,0,0,0,0,0,0,0,0,0,0,0,0,0,0,0,0,0,0,0,0,0,0,0,0,0,0,
0,0,0,0,0,0,0,0,0,0,0,0,0,0,0,0,0,0,0,0,0,0,0,0,0,0,0,0,0,0,0,0,0,0,0,0,0,0,0,0,0,0,0,0,0,0,0,0,0,0,0,0,0,0,0,0,0,0,0,0,
0,0,0,0,0,0,0,0,0,0,0,0,0,0,0,0,0,0,0,0,0,0,0,0,0,0,0,0,0,0,0,0,0,0,0,0,0,0,0,0,0,0,0,0,0,0,0,0,0,0,0,0,0,0,0,0,0,0,0,0,
0,0,0,0,0,0,0,0,0,0,0,0,0,0,0,0,0,0,0,0,0,0,0,0,0,0,0,0,0,0,0,0,0,0,0,0,0,0,0,0,0,0,0,0,0,0,0,0,0,0,0,0,0,0,0,0,0,0,0,0,
0,0,0,0,0,0,0,0,0,0,0,0,0,0,0,0,0,0,0,0,0,0,0,0,0,0,0,0,0,0,0,0,0,0,0,0,0,0,0,0,0,0,0,0,0,0,0,0,0,0,0,0,0,0,0,0,0,0,0,0,
0,0,0,0,0,0,0,0,0,0,0,0,0,0,0,0,0,0,0,0,0,0,0,0,0,0,0,0,0,0,0,0,0,0,0,0,0,0,0,0,0,0,0,0,0,0,0,0,0,0,0,0,0,0,0,0,0,0,0,0,
0,0,0,0,0,0,0,0,0,0,0,0,0,0,0,0,0,0,0,0,0,0,0,0,0,0,0,0,0,0,0,0,0,0,0,0,0,0,0,0,0,0,0,0,0,0,0,0,0,0,0,0,0,0,0,0,0,0,0,0,
0,0,0,0,0,0,0,0,0,0,0,0,0,0,0,0,0,0,0,0,0,0,0,0,0,0,0,0,0,0,0,0,0,0,0,0,0,0,0,0,0,0,0,0,0,0,0,0,0,0,0,0,0,0,0,0,0,0,0,0,
0,0,0,0,0,0,0,0,0,0,0,0,0,0,0,0,0,0,0,0,0,0,0,0,0,0,0,0,0,0,0,0,0,0,0,0,0,0,0,0,0,0,0,0,0,0,0,0,0,0,0,0,0,0,0,0,0,0,0,0,
0,0,0,0,0,0,0,0,0,0,0,0,0,0,0,0,0,0,0,0,0,0,0,0,0,0,0,0,0,0,0,0,0,0,0,0,0,0,0,0,0,0,0,0,0,0,0,0,0,0,0,0,0,0,0,0,0,0,0,0,
0,0,0,0,0,0,0,0,0,0,0,0,0,0,0,0,0,0,0,0,0,0,0,0,0,0,0,0,0,0,0,0,0,0,0,0,0,0,0,0,0,0,0,0,0,0,0,0,0,0,0,0,0,0,0,0,0,0,0,0,
0,0,0,0,0,0,0,0,0,0,0,0,0,0,0,0,0,0,0,0,0,0,0,0,0,0,0,0,0,0,0,0,0,0,0,0,0,0,0,0,0,0,0,0,0,0,0,0,0,0,0,0,0,0,0,0,0,0,0,0,
0,0,0,0,0,0,0,0,0,0,0,0,0,0,0,0,0,0,0,0,0,0,0,0,0,0,0,0,0,0,0,0,0,0,0,0,0,0,0,0,0,0,0,0,0,0,0,0,0,0,0,0,0,0,0,0,0,0,0,0,
0,0,0,0,0,0,0,0,0,0,0,0,0,0,0,0,0,0,0,0,0,0,0,0,0,0,0,0,0,0,0,0,0,0,0,0,0,0,0,0,0,0,0,0,0,0,0,0,0,0,0,0,0,0,0,0,0,0,0,0,
0,0,0,0,0,0,0,0,0,0,0,0,0,0,0,0,0,0,0,0,0,0,0,0,0,0,0,0,0,0,0,0,0,0,0,0,0,0,0,0,0,0,0,0,0,0,0,0,0,0,0,0,0,0,0,0,0,0,0,0,
0,0,0,0,0,0,0,0,0,0,0,0,0,0,0,0,0,0,0,0,0,0,0,0,0,0,0,0,0,0,0,0,0,0,0,0,0,0,0,0,0,0,0,0,0,0,0,0,0,0,0,0,0,0,0,0,0,0,0,0,
0,0,0,0,0,0,0,0,0,0,0,0,0,0,0,0,0,0,0,0,0,0,0,0,0,0,0,0,0,0,0,0,0,0,0,0,0,0,0,0,0,0,0,0,0,0,0,0,0,0,0,0,0,0,0,0,0,0,0,0,
0,0,0,0,0,0,0,0,0,0,0,0,0,0,0,0,0,0,0,0,0,0,0,0,0,0,0,0,0,0,0,0,0,0,0,0,0,0,0,0,0,0,0,0,0,0,0,0,0,0,0,0,0,0,0,0,0,0,0,0,
0,0,0,0,0,0,0,0,0,0,0,0,0,0,0,0,0,0,0,0,0,0,0,0,0,0,0,0,0,0,0,0,0,0,0,0,0,0,0,0,0,0,0,0,0,0,0,0,0,0,0,0,0,0,0,0,0,0,0,0,
1273,1274,1273,1274,1273,1274,1273,1274,1285,1286,0,0,0,0,0,0,0,0,0,0,0,0,0,0,0,0,0,0,0,0,0,0,0,0,0,0,0,0,0,0,0,0,0,0,0,0,0,0,0,0,1271,1272,1273,1274,1273,1274,1273,1274,1273,1274,
1279,1280,1279,1280,1279,1280,1279,1280,1291,1292,0,0,0,0,0,0,0,0,0,0,0,0,0,0,0,0,0,0,0,0,0,0,0,0,0,0,0,0,0,0,0,0,0,0,0,0,0,0,0,0,1277,1278,1279,1280,1279,1280,1279,1280,1279,1280,
0,0,0,0,0,0,0,0,1295,1296,1273,1274,1273,1274,1273,1274,1273,1274,1273,1274,1273,1274,1273,1274,1273,1274,1273,1274,1273,1274,1273,1274,1273,1274,1273,1274,1273,1274,1273,1274,1273,1274,1273,1274,1273,1274,1273,1274,1273,1274,1297,1298,0,0,0,0,0,0,0,0,
0,0,0,0,0,0,0,0,1301,1302,1279,1280,1279,1280,1279,1280,1279,1280,1279,1280,1279,1280,1279,1280,1279,1280,1279,1280,1279,1280,1279,1280,1279,1280,1279,1280,1279,1280,1279,1280,1279,1280,1279,1280,1279,1280,1279,1280,1279,1280,1303,1304,0,0,0,0,0,0,0,0,
0,0,0,0,0,0,0,0,0,0,0,0,0,0,0,0,0,0,0,0,0,0,0,0,0,0,0,0,0,0,0,0,0,0,0,0,0,0,0,0,0,0,0,0,0,0,0,0,0,0,0,0,0,0,0,0,0,0,0,0,
0,0,0,0,0,0,0,0,0,0,0,0,0,0,0,0,0,0,0,0,0,0,0,0,0,0,0,0,0,0,0,0,0,0,0,0,0,0,0,0,0,0,0,0,0,0,0,0,0,0,0,0,0,0,0,0,0,0,0,0,
0,0,0,0,0,0,0,0,0,0,0,0,0,0,0,0,0,0,0,0,0,0,0,0,0,0,0,0,0,0,0,0,0,0,0,0,0,0,0,0,0,0,0,0,0,0,0,0,0,0,0,0,0,0,0,0,0,0,0,0,
0,0,0,0,0,0,0,0,0,0,0,0,0,0,0,0,0,0,0,0,0,0,0,0,0,0,0,0,0,0,0,0,0,0,0,0,0,0,0,0,0,0,0,0,0,0,0,0,0,0,0,0,0,0,0,0,0,0,0,0,
0,0,0,0,0,0,0,0,0,0,0,0,0,0,0,0,0,0,0,0,0,0,0,0,0,0,0,0,0,0,0,0,0,0,0,0,0,0,0,0,0,0,0,0,0,0,0,0,0,0,0,0,0,0,0,0,0,0,0,0,
0,0,0,0,0,0,0,0,0,0,0,0,0,0,0,0,0,0,0,0,0,0,0,0,0,0,0,0,0,0,0,0,0,0,0,0,0,0,0,0,0,0,0,0,0,0,0,0,0,0,0,0,0,0,0,0,0,0,0,0,
0,0,0,0,0,0,0,0,0,0,0,0,0,0,0,0,0,0,0,0,0,0,0,0,0,0,0,0,0,0,0,0,0,0,0,0,0,0,0,0,0,0,0,0,0,0,0,0,0,0,0,0,0,0,0,0,0,0,0,0
</data>
 </layer>
 <layer id="7" name="Tile Layer 3" width="60" height="30">
  <data encoding="csv">
925,925,925,925,925,925,925,925,925,925,925,925,925,925,925,925,925,925,925,925,925,925,925,925,925,925,925,925,925,925,925,925,925,925,925,925,925,925,925,925,925,925,925,925,925,925,925,925,925,925,925,925,925,925,925,925,925,925,925,925,
925,925,925,925,925,925,925,925,925,925,925,925,925,925,925,925,925,925,925,925,925,925,925,925,925,925,925,925,925,925,925,925,925,925,925,925,925,925,925,925,925,925,925,925,925,925,925,925,925,925,925,925,925,925,925,925,925,925,925,925,
925,925,925,925,925,925,925,925,925,925,925,925,925,925,925,925,925,925,925,925,925,925,925,925,925,925,925,925,925,925,925,925,925,925,925,925,925,925,925,925,925,925,925,925,925,925,925,925,925,925,925,925,925,925,925,925,925,925,925,925,
925,925,925,925,925,925,925,925,925,925,925,925,925,925,925,925,925,925,925,925,925,925,925,925,925,925,925,925,925,925,925,925,925,925,925,925,925,925,925,925,925,925,925,925,925,925,925,925,925,925,925,925,925,925,925,925,925,925,925,925,
925,925,925,925,1109,1092,1111,1105,1098,1098,1110,1093,1091,1105,925,925,925,925,925,1104,1110,1097,1105,925,925,925,925,925,925,925,925,925,1091,1091,1110,1111,1110,1103,1093,1111,1109,1105,925,925,925,925,925,1105,1109,1105,1105,1109,1098,1097,1098,1109,1098,1104,925,925,
995,1180,1176,1176,1160,1160,1176,1160,1160,1148,1182,1170,1186,1160,1176,1176,1160,1174,1154,1154,1174,1180,1168,1154,1164,1148,1160,1176,1180,1176,1186,1154,1180,1164,1176,1174,1174,1160,1170,1186,1186,1182,1180,1142,1154,1176,1154,1154,1160,1142,1186,1170,1186,1142,1182,1174,1142,1180,1168,955,
926,0,0,0,0,0,0,0,0,0,0,0,0,0,0,0,0,0,0,0,0,0,0,0,0,0,0,0,608,598,0,0,0,0,0,0,0,0,0,0,0,0,0,0,0,0,0,0,0,0,0,0,0,0,0,0,0,0,0,0,
1147,0,0,0,0,0,0,0,0,0,0,0,0,0,0,0,0,0,0,0,0,0,0,0,0,0,0,0,0,0,0,0,0,0,0,0,0,0,0,0,0,0,0,0,0,0,0,0,0,0,0,0,0,0,0,0,0,0,0,0,
926,0,0,0,0,0,0,0,0,0,0,0,0,0,0,0,0,0,0,0,0,0,0,0,0,0,0,0,0,0,0,0,0,0,0,0,0,0,0,0,0,0,0,0,0,0,0,0,0,0,0,0,0,0,0,0,0,0,0,0,
1141,0,0,0,0,0,0,0,0,0,0,0,0,0,0,0,0,0,0,0,0,0,0,0,0,0,0,0,0,0,0,0,0,0,0,0,0,0,0,0,0,0,0,0,0,0,0,0,0,0,0,0,0,0,0,0,0,0,0,0,
926,0,0,0,0,0,0,0,0,0,0,0,0,0,0,0,0,0,0,0,0,0,0,0,0,0,0,0,0,0,0,0,0,0,0,0,0,0,0,0,0,0,0,0,764,765,766,767,0,0,0,0,0,0,0,0,0,0,0,0,
962,0,0,0,0,0,0,0,0,0,0,0,0,0,0,0,0,0,0,0,0,0,755,756,757,758,0,0,0,0,0,0,0,0,0,0,0,0,0,0,0,0,0,0,788,789,790,791,0,0,0,0,0,0,0,0,0,0,0,0,
0,0,0,0,0,0,0,0,0,0,0,0,0,0,0,0,0,0,0,0,0,0,779,780,781,782,0,0,0,0,0,0,0,629,630,631,0,0,0,0,610,0,0,610,812,813,814,815,0,0,0,0,0,0,0,0,0,0,0,0,
0,0,0,0,0,0,0,0,0,0,0,0,0,0,0,0,0,0,0,0,0,0,803,804,805,806,0,0,0,0,0,0,0,647,648,649,0,610,2147484236,0,0,0,0,588,836,837,838,839,0,0,0,0,0,0,0,0,0,0,0,0,
0,0,0,0,0,0,0,0,0,0,0,0,0,0,0,0,0,0,0,0,0,0,827,828,829,830,0,0,0,0,0,0,0,665,666,667,0,0,2147484254,610,0,0,0,606,860,861,862,863,0,0,0,0,0,0,0,0,0,0,0,0,
0,0,0,0,0,0,0,0,0,0,0,0,0,0,0,0,0,0,0,0,0,0,0,0,693,694,0,0,0,0,0,0,0,0,0,0,0,610,0,0,0,0,0,610,884,885,886,887,0,0,0,0,0,0,0,0,0,0,0,0,
0,0,0,0,0,0,0,0,0,0,0,0,0,0,0,0,0,0,0,0,0,0,0,0,711,712,0,0,0,0,0,0,0,0,0,0,0,0,0,0,0,610,0,0,610,0,0,0,0,0,0,0,0,0,0,0,0,0,0,0,
0,0,0,0,0,0,0,0,0,0,0,0,0,0,0,0,0,0,0,0,0,0,0,0,0,0,0,0,0,0,0,0,0,0,0,0,0,0,0,0,0,0,0,0,0,0,0,0,0,0,0,0,0,0,0,0,0,0,0,0,
0,0,0,0,0,0,0,0,0,0,0,0,0,0,0,0,0,0,0,0,0,0,0,0,0,0,0,0,0,0,0,0,0,0,0,0,0,0,0,0,0,0,0,0,0,0,0,0,0,0,0,0,0,0,0,0,0,0,0,0,
0,0,0,0,0,0,0,0,0,0,0,0,0,0,0,0,0,0,0,0,0,0,0,0,0,0,0,0,0,0,0,0,0,0,0,0,0,0,0,0,0,0,0,0,0,0,0,0,0,0,0,0,0,0,0,0,0,0,0,0,
0,0,0,0,0,0,0,0,0,0,0,0,0,0,0,0,0,0,0,0,0,0,0,0,0,0,0,0,0,0,0,0,0,0,0,0,0,0,0,0,0,0,0,0,0,0,0,0,0,0,0,0,0,0,0,0,0,0,0,0,
0,0,0,0,0,0,0,0,0,0,0,0,0,0,0,0,0,0,0,0,0,0,0,0,0,0,769,770,771,0,0,0,0,0,0,0,0,0,0,0,769,770,771,0,0,0,0,0,0,0,0,0,610,610,769,770,771,610,610,610,
0,0,0,610,0,0,0,0,0,760,761,762,764,765,766,767,0,0,0,0,0,0,0,777,778,0,793,794,795,0,760,761,762,0,849,0,0,0,0,0,793,794,795,0,0,0,0,764,765,766,767,0,610,0,793,794,795,0,0,0,
610,0,0,610,0,0,0,0,610,784,785,786,788,789,790,791,0,0,0,773,774,775,0,801,802,0,817,818,819,0,784,785,786,0,873,0,0,777,778,0,817,818,819,610,610,0,610,788,789,790,791,610,610,0,817,818,819,0,0,0,
0,610,610,0,0,0,0,610,610,808,809,810,812,813,814,815,777,778,0,797,798,799,760,761,762,0,841,842,843,0,808,809,810,0,755,756,757,801,802,0,841,842,843,0,0,610,610,812,813,814,815,610,610,0,841,842,843,0,0,0,
0,0,0,0,610,610,0,1250,610,832,833,834,836,837,838,839,801,802,756,757,758,0,784,785,786,610,610,866,867,610,832,833,834,0,779,780,781,782,0,0,865,866,867,0,1267,1268,610,836,837,838,839,610,610,764,765,766,767,0,0,0,
0,0,0,0,610,610,610,610,610,610,610,610,860,861,862,863,610,779,780,781,782,0,808,809,810,0,889,890,891,773,610,610,610,0,803,804,805,806,0,0,889,890,891,772,610,610,610,860,861,862,863,610,0,788,789,790,791,764,765,766,
0,0,0,0,610,610,610,0,0,610,1247,1248,884,885,886,887,0,803,804,805,806,0,832,833,834,610,610,610,610,610,610,610,610,610,827,828,829,830,610,610,610,610,610,796,610,773,774,775,885,886,887,0,0,812,813,814,815,788,789,790,
0,0,0,0,610,0,0,610,0,876,1258,1259,610,1250,773,774,775,827,828,829,830,610,610,610,0,610,0,0,610,610,610,610,0,0,1247,1248,610,610,610,1267,1268,0,610,610,610,797,798,799,0,0,0,0,0,836,837,838,839,812,813,814,
0,0,610,0,0,0,0,0,0,610,0,610,0,0,797,798,799,0,0,0,0,0,0,0,0,0,0,0,0,0,0,610,610,610,1258,1259,0,0,880,610,610,610,0,878,610,0,0,0,869,870,871,0,610,860,861,862,863,836,837,838
</data>
 </layer>
 <layer id="8" name="Tile Layer 4" width="60" height="30" visible="0">
  <data encoding="csv">
0,0,0,1247,1248,0,0,0,0,0,0,0,0,0,0,0,0,1265,0,0,0,0,0,1247,1248,0,0,0,0,0,0,0,0,1252,0,0,0,0,0,0,0,0,0,0,0,0,0,1265,0,1254,0,0,0,0,0,1265,0,0,0,0,
0,0,0,1258,1259,0,0,0,1254,0,0,0,0,1247,1248,0,0,0,0,0,0,0,0,1258,1259,0,0,0,0,0,0,0,0,0,0,0,0,0,0,1254,0,0,0,0,1267,1268,0,0,0,1265,0,0,0,0,0,0,0,0,0,0,
0,0,0,0,0,0,0,0,1265,0,0,0,0,1258,1259,0,0,0,0,0,1267,1268,0,0,0,0,0,0,0,1252,1247,1248,0,0,0,0,0,0,0,1265,0,0,0,0,0,0,0,0,0,0,0,1267,1268,0,0,0,0,0,0,0,
0,0,0,0,0,0,0,0,0,0,0,0,0,0,0,0,0,0,0,0,0,0,0,0,0,0,0,0,0,0,1258,1259,0,0,0,0,0,0,0,0,0,0,0,0,1252,0,0,0,0,0,0,0,0,0,0,0,0,0,0,0,
0,0,0,0,0,0,0,0,0,0,0,0,0,0,0,0,0,0,0,0,0,0,0,760,761,762,0,0,0,0,0,0,0,0,0,0,0,0,0,0,0,0,0,0,0,0,0,0,0,0,0,0,0,0,0,0,0,0,0,0,
0,0,0,0,0,0,0,0,0,0,0,0,0,0,0,0,0,0,0,0,0,0,0,784,785,786,723,724,0,0,0,0,0,0,0,0,0,0,0,0,0,0,0,0,0,0,0,0,0,0,0,0,0,0,0,0,0,0,0,0,
0,0,0,0,0,0,0,0,0,0,0,0,0,0,0,0,0,0,0,0,0,0,0,808,809,810,741,742,0,0,0,0,0,0,0,0,0,0,0,0,0,0,0,0,0,0,0,0,0,0,0,0,0,0,0,0,0,0,0,0,
0,0,0,0,0,0,0,0,0,0,0,0,0,0,0,0,0,0,0,0,0,0,0,832,833,834,0,0,0,0,0,0,0,0,0,0,0,0,0,0,0,0,0,0,0,0,0,0,0,0,0,0,0,0,0,0,0,0,0,0,
0,0,0,0,0,0,0,0,0,0,0,0,0,0,0,0,0,0,0,0,0,0,0,0,0,0,0,0,0,0,0,0,0,0,0,0,0,0,0,0,0,0,0,0,0,0,0,0,0,0,755,756,757,758,0,0,0,0,0,0,
0,0,0,0,0,0,0,0,0,0,0,0,0,0,0,0,0,0,0,0,0,0,0,0,0,0,0,0,0,0,0,0,0,0,0,0,0,0,0,0,0,0,0,0,0,0,0,0,0,0,779,780,781,782,0,0,0,0,0,0,
0,0,0,0,0,0,0,0,0,0,0,0,0,0,0,0,0,0,0,0,0,0,0,0,0,0,0,0,0,0,0,0,0,0,0,0,0,0,0,0,0,0,0,0,0,0,0,0,0,0,803,804,805,806,0,0,0,0,0,0,
0,0,0,0,0,0,0,0,0,0,0,2147484282,2147484281,0,0,0,0,0,0,0,0,0,0,0,0,0,0,0,0,0,0,0,0,0,0,0,0,0,0,610,0,0,0,0,0,0,0,0,0,0,827,828,829,830,0,0,0,636,637,0,
0,0,0,0,0,0,0,0,0,0,0,2147484300,2147484299,0,0,0,0,0,0,0,0,0,0,0,0,0,0,0,0,0,0,0,0,0,0,0,0,0,0,0,0,0,0,0,0,0,0,0,0,0,0,0,0,0,0,0,0,654,655,0,
0,0,0,0,0,0,0,0,0,0,0,2147484318,2147484317,0,0,0,0,701,702,703,0,0,0,0,0,0,0,0,0,0,0,0,0,0,0,0,0,0,0,0,0,0,0,0,0,0,0,0,0,0,0,0,0,0,0,0,0,0,0,0,
0,0,0,0,0,0,0,0,0,0,0,2147484336,2147484335,0,0,0,588,719,720,721,588,0,0,0,0,0,0,0,0,0,0,0,0,0,0,0,0,0,0,0,0,0,0,0,0,0,633,634,0,0,0,0,0,0,0,0,0,0,0,0,
0,0,0,0,0,0,0,0,0,0,0,0,0,0,0,0,606,737,738,739,606,0,1247,1248,0,0,0,0,0,0,0,0,0,0,0,0,0,0,0,0,0,0,0,0,0,0,651,652,0,0,0,0,0,764,765,766,767,0,0,0,
0,0,0,0,0,0,0,0,0,0,0,0,0,0,0,0,0,0,0,0,0,0,1258,1259,0,633,634,0,0,0,0,0,0,2147484282,2147484281,0,0,582,583,0,0,0,0,0,610,0,669,670,0,0,0,0,0,788,789,790,791,0,0,0,
0,0,0,0,0,0,0,0,0,0,0,0,0,0,0,0,0,0,0,0,0,0,0,0,0,651,652,0,0,0,0,0,0,2147484300,2147484299,0,0,600,601,0,0,0,0,0,0,0,687,688,0,0,0,0,0,812,813,814,815,777,778,0,
0,0,0,0,755,756,757,758,0,0,0,0,0,0,0,0,0,0,0,0,0,0,0,0,0,669,670,0,0,0,0,0,0,2147484318,2147484317,0,0,0,0,0,0,0,0,0,0,0,0,0,0,0,0,0,0,836,837,838,839,801,802,756,
760,761,762,0,779,780,781,782,0,0,0,0,0,0,0,0,0,0,0,0,0,0,0,0,0,687,0,0,0,0,0,0,0,2147484336,2147484335,0,0,0,0,0,0,0,0,0,0,0,0,0,0,0,760,761,762,860,861,862,863,0,779,780,
784,785,786,0,803,804,805,806,0,0,0,0,0,0,0,0,0,0,0,0,0,0,0,0,0,0,0,0,0,0,0,0,0,0,0,0,0,0,0,0,0,0,0,0,0,0,0,0,0,0,784,785,786,884,885,886,887,0,803,804,
808,809,810,0,827,828,829,830,769,770,771,0,0,0,0,0,0,0,0,0,0,0,0,0,0,0,0,0,0,0,0,0,0,0,0,0,0,0,0,0,0,0,0,0,760,761,762,0,0,0,808,809,810,0,0,773,774,775,827,828,
832,833,834,0,0,0,0,0,793,794,795,0,0,0,0,0,0,0,0,0,0,0,0,0,0,0,0,0,0,0,0,0,0,0,0,0,0,0,0,0,0,0,0,0,784,785,786,0,0,0,832,833,834,765,766,797,798,799,0,0,
0,764,765,766,767,0,0,0,817,818,819,0,0,0,0,0,0,0,0,0,0,0,0,0,0,0,0,0,0,0,0,0,0,0,0,0,0,0,0,0,0,0,0,0,808,809,810,0,0,0,0,0,788,789,790,791,0,0,0,773,
0,788,789,790,791,0,0,0,841,842,843,0,0,0,0,0,0,0,0,0,764,765,766,767,0,0,0,0,0,0,0,0,0,0,0,0,769,770,771,0,0,0,0,0,832,833,834,0,0,0,0,0,812,813,814,815,777,778,0,797,
0,812,813,814,815,0,0,0,865,866,867,0,0,0,0,0,0,0,0,0,788,789,790,791,0,0,0,0,0,0,0,0,0,0,0,0,793,794,795,0,0,0,0,0,0,0,0,0,0,0,0,0,836,837,838,839,801,802,756,757,
0,836,837,838,839,760,761,762,889,890,891,0,0,0,0,0,0,0,0,0,812,813,814,815,0,755,756,757,758,0,755,756,757,758,0,0,817,818,819,0,0,0,0,0,0,0,0,0,0,0,0,0,860,861,862,863,0,779,780,781,
0,860,861,862,863,784,785,786,0,0,0,0,0,0,0,0,0,0,0,0,836,837,838,839,0,779,780,781,782,0,779,780,781,782,0,0,841,842,843,0,0,0,0,0,0,0,0,0,0,0,0,0,884,885,886,887,0,803,804,805,
0,884,885,886,887,808,809,810,0,0,0,0,0,0,0,0,0,0,0,0,860,861,862,863,0,803,804,805,806,0,803,804,805,806,0,0,865,866,867,0,0,0,0,0,0,0,0,0,0,0,0,0,0,0,773,774,775,827,828,829,
0,0,0,0,0,832,833,834,0,0,0,0,0,0,0,0,0,0,0,0,884,885,886,887,0,827,828,829,830,0,827,828,829,830,0,0,889,890,891,0,0,0,0,0,0,0,0,0,0,0,0,0,0,0,797,798,799,0,0,0
</data>
 </layer>
 <layer id="10" name="Tile Layer 5" width="60" height="30" visible="0">
  <data encoding="csv">
0,0,0,0,0,0,0,0,0,0,0,0,0,0,0,0,0,0,0,0,0,0,0,0,0,0,0,0,0,0,0,0,0,0,0,0,0,0,0,0,0,0,0,0,0,0,0,0,0,0,0,0,0,0,0,0,0,0,0,0,
0,0,0,0,0,0,0,0,0,0,0,0,0,0,0,0,0,0,0,0,0,0,0,0,0,0,0,0,0,0,0,0,0,0,0,0,0,0,0,0,0,0,0,0,0,0,0,0,0,0,0,0,0,0,0,0,0,0,0,0,
0,0,0,0,0,0,0,0,0,0,0,0,0,0,0,0,0,0,0,0,0,0,0,0,0,0,0,0,0,0,0,0,0,0,0,0,0,0,0,0,0,0,0,0,0,0,0,0,0,0,0,0,0,0,0,0,0,0,0,0,
0,0,0,0,0,0,0,0,0,0,0,0,0,0,0,0,0,0,0,0,0,0,0,0,0,0,0,0,0,0,0,0,0,0,0,0,0,0,0,0,0,0,0,0,0,0,0,0,0,0,0,0,0,0,0,0,0,0,0,0,
0,0,0,0,0,0,0,0,0,0,0,0,0,0,0,0,0,0,0,0,0,0,0,0,0,0,0,0,0,0,0,0,0,0,0,0,0,0,0,0,0,0,0,0,0,0,0,0,0,0,0,0,0,0,0,0,0,0,0,0,
0,0,0,0,0,0,0,0,0,0,0,0,0,0,0,0,0,0,0,0,0,0,0,0,0,0,0,0,0,0,0,0,0,0,0,0,0,0,0,0,0,0,0,0,0,0,0,0,0,0,0,0,0,0,0,0,0,0,0,0,
0,0,0,0,0,0,0,0,0,0,0,0,0,0,0,0,0,0,0,0,0,0,0,0,0,0,0,0,0,0,0,0,0,0,0,0,0,0,0,0,0,0,0,0,0,0,0,0,0,0,0,0,0,0,0,0,0,0,0,0,
0,0,0,0,0,0,0,0,0,0,0,0,0,0,0,0,0,0,0,0,0,0,0,0,0,0,0,0,0,0,0,0,0,0,0,0,0,0,0,0,0,0,0,0,0,0,0,0,0,0,0,0,0,0,0,0,0,0,0,0,
0,0,0,0,0,0,0,0,0,0,0,0,0,0,0,0,0,0,0,0,0,0,0,0,0,0,0,0,0,0,0,0,0,0,0,0,0,0,0,0,0,0,0,0,0,0,0,0,0,0,0,0,0,0,0,0,0,0,0,0,
0,0,0,0,0,0,0,0,0,0,0,0,0,0,0,0,0,0,0,0,0,0,0,0,0,0,0,0,0,0,0,0,0,0,0,0,0,0,0,0,0,0,0,0,0,0,0,0,0,0,0,0,0,0,0,0,0,0,0,0,
0,0,0,0,0,0,0,0,0,0,0,0,0,0,0,0,0,0,0,0,0,0,0,0,0,0,0,0,0,0,0,0,0,0,0,0,0,0,0,0,0,0,0,0,0,0,0,0,0,0,0,0,0,0,0,0,0,0,0,0,
0,0,0,0,0,0,0,0,0,0,0,0,0,0,0,0,0,0,0,0,0,0,0,0,0,0,0,0,0,0,0,0,0,0,0,0,0,0,0,0,0,0,0,0,0,0,0,0,0,0,0,0,0,0,0,0,0,0,0,0,
0,0,0,0,0,0,0,0,0,0,0,0,0,0,0,0,0,0,0,0,0,0,0,0,0,0,0,0,0,0,0,0,0,0,0,0,0,0,0,0,0,0,0,0,0,0,0,0,0,0,0,0,0,0,0,0,0,0,0,0,
0,0,0,0,0,0,0,0,0,0,0,0,0,0,0,0,0,0,0,0,0,0,0,0,0,0,0,0,0,0,0,0,0,0,0,0,0,644,645,0,0,0,0,0,0,0,0,0,0,0,0,0,0,0,0,0,0,0,0,0,
0,0,0,0,0,0,0,0,0,0,0,0,0,0,0,0,0,0,0,0,0,0,0,0,0,0,0,0,0,0,0,0,0,0,0,0,0,662,663,0,0,0,0,0,0,0,0,0,0,0,0,0,0,0,0,0,0,0,0,0,
0,0,0,0,0,0,0,0,0,0,0,0,0,0,0,0,0,0,0,0,0,0,0,0,0,0,0,0,0,0,0,0,0,0,0,0,0,680,681,0,0,0,0,0,0,0,0,0,0,0,0,0,0,0,0,0,0,0,0,0,
0,0,0,0,0,0,0,0,0,0,0,0,0,0,0,0,0,0,0,0,0,0,0,0,0,0,0,0,0,0,0,0,0,0,0,0,0,698,699,0,0,0,0,0,0,0,0,0,0,0,0,0,0,0,0,0,0,0,0,0,
0,0,0,0,0,0,0,0,0,0,0,0,0,0,0,0,0,0,0,0,0,0,0,0,0,0,0,0,0,0,0,0,0,0,0,0,0,0,0,0,0,0,0,0,0,0,0,0,0,0,0,0,0,0,0,0,0,0,0,0,
0,0,0,0,0,0,0,0,0,0,0,0,0,0,0,0,0,0,0,0,0,0,0,0,0,0,0,0,0,0,0,0,0,0,0,0,0,0,0,0,0,0,0,0,0,0,0,0,0,0,0,0,0,0,0,0,0,0,0,0,
0,0,0,0,0,0,0,0,0,0,0,0,0,0,0,0,0,0,0,0,0,0,0,0,0,0,0,0,0,0,0,0,0,0,0,0,0,0,0,0,0,0,0,0,0,0,0,0,0,0,0,0,0,0,0,0,0,0,0,0,
0,0,0,0,0,0,0,0,0,0,0,0,0,0,0,0,0,0,0,0,0,0,0,0,0,0,0,0,0,0,0,0,0,0,0,0,0,0,0,0,0,0,0,0,0,0,0,0,0,0,0,0,0,0,0,0,0,0,0,0,
0,0,0,0,0,0,0,0,0,0,0,0,0,0,0,0,0,0,0,0,0,0,0,0,0,0,0,0,0,0,0,0,0,0,0,0,0,0,0,0,0,0,0,0,0,0,0,0,0,0,0,0,0,0,0,0,0,0,0,0,
0,0,0,0,0,0,0,0,0,0,0,0,0,0,0,0,0,0,0,0,0,0,0,0,0,0,0,0,0,0,0,0,0,0,0,0,0,0,0,0,0,0,0,0,0,0,0,0,0,0,0,0,0,0,0,0,0,0,0,0,
0,0,0,0,0,0,0,0,0,0,0,0,0,0,0,0,0,0,0,0,0,0,0,0,0,0,0,0,0,0,0,0,0,0,0,0,0,0,0,0,0,0,0,0,0,0,0,0,0,0,0,0,0,0,0,0,0,0,0,0,
0,0,0,0,0,0,0,0,0,0,0,0,0,0,0,0,0,0,0,0,0,0,0,0,0,0,0,0,0,0,0,0,0,0,0,0,0,0,0,0,0,0,0,0,0,0,0,0,0,0,0,0,0,0,0,0,0,0,0,0,
0,0,0,0,0,0,0,0,0,0,0,0,0,0,0,0,0,0,0,0,0,0,0,0,0,0,0,0,0,0,0,0,0,0,0,0,0,0,0,0,0,0,0,0,0,0,0,0,0,0,0,0,0,0,0,0,0,0,0,0,
0,0,0,0,0,0,0,0,0,0,0,0,0,0,0,0,0,0,0,0,0,0,0,0,0,0,0,0,0,0,0,0,0,0,0,0,0,0,0,0,0,0,0,0,0,0,0,0,0,0,0,0,0,0,0,0,0,0,0,0,
0,0,0,0,0,0,0,0,0,0,0,0,0,0,0,0,0,0,0,0,0,0,0,0,0,0,0,0,0,0,0,0,0,0,0,0,0,0,0,0,0,0,0,0,0,0,0,0,0,0,0,0,0,0,0,0,0,0,0,0,
0,0,0,0,0,0,0,0,0,0,0,0,0,0,0,0,0,0,0,0,0,0,0,0,0,0,0,0,0,0,0,0,0,0,0,0,0,0,0,0,0,0,0,0,0,0,0,0,0,0,0,0,0,0,0,0,0,0,0,0,
0,0,0,0,0,0,0,0,0,0,0,0,0,0,0,0,0,0,0,0,0,0,0,0,0,0,0,0,0,0,0,0,0,0,0,0,0,0,0,0,0,0,0,0,0,0,0,0,0,0,0,0,0,0,0,0,0,0,0,0
</data>
 </layer>
</map>
