<?xml version="1.0" encoding="UTF-8"?>
<map version="1.10" tiledversion="1.11.2" orientation="orthogonal" renderorder="right-down" width="12" height="12" tilewidth="16" tileheight="16" infinite="0" nextlayerid="12" nextobjectid="1">
 <tileset firstgid="1" source="atlas_16x.tsx"/>
 <layer id="1" name="ground" width="12" height="12">
  <data encoding="csv">
339,339,339,340,289,339,340,338,290,289,289,339,
340,337,340,338,339,340,290,337,338,290,339,289,
438,438,486,438,438,438,337,289,337,338,339,338,
486,438,486,438,486,438,340,339,337,289,289,337,
340,338,290,290,339,340,340,289,338,289,340,338,
338,339,337,338,289,289,289,290,340,289,340,290,
289,338,337,339,337,338,339,338,337,339,289,339,
289,340,340,289,339,290,340,290,290,290,338,290,
337,337,338,340,339,339,339,338,289,289,290,289,
290,339,339,338,339,290,290,289,289,289,340,339,
289,289,340,337,289,290,338,340,340,339,340,338,
339,289,338,290,290,337,290,340,337,339,339,337
</data>
 </layer>
 <layer id="2" name="walls" width="12" height="12">
  <data encoding="csv">
97,97,97,97,97,97,97,97,97,97,97,97,
145,145,145,145,145,145,145,145,145,145,145,145,
0,0,0,0,0,0,0,0,0,0,0,0,
0,0,0,0,0,0,0,0,0,0,0,0,
0,0,0,0,0,0,0,0,0,0,0,0,
0,0,0,0,0,0,0,0,0,0,0,0,
0,0,0,0,0,0,0,0,0,0,0,0,
0,0,0,0,0,0,0,0,0,0,0,0,
0,0,0,0,0,0,0,0,0,0,0,0,
0,0,0,0,0,0,0,0,0,0,0,0,
0,0,0,0,0,0,0,0,0,0,0,0,
0,0,0,0,0,0,0,0,0,0,0,0
</data>
 </layer>
 <layer id="3" name="objects" width="12" height="12">
  <data encoding="csv">
0,0,0,0,0,0,0,0,0,0,0,0,
0,0,0,0,0,0,595,684,684,0,0,0,
0,0,0,0,0,0,643,732,732,161,162,163,
0,0,0,0,0,0,0,0,0,209,210,211,
0,0,0,0,0,0,0,0,0,257,258,259,
0,0,0,0,0,0,0,0,0,0,0,0,
0,0,0,0,0,0,0,0,0,0,0,0,
0,0,0,0,0,0,0,0,0,0,0,0,
0,0,0,0,0,305,306,306,306,307,0,0,
0,0,0,0,0,353,354,353,354,355,0,0,
0,0,0,0,0,401,402,402,402,403,0,0,
0,103,104,0,0,0,0,0,0,0,0,0
</data>
 </layer>
 <layer id="4" name="objects2" width="12" height="12">
  <data encoding="csv">
0,11,0,11,0,0,641,12,13,0,11,0,
0,59,0,59,0,0,689,60,61,0,59,0,
0,0,0,0,0,0,0,0,0,0,0,0,
0,0,0,0,0,0,0,0,0,0,0,0,
0,0,0,0,0,0,0,0,0,209,210,211,
0,0,0,0,0,0,0,0,0,0,0,0,
0,0,0,0,0,0,0,0,0,0,0,0,
0,0,0,0,0,0,0,0,0,0,0,0,
0,0,0,0,0,0,0,0,0,0,0,0,
0,0,0,0,0,0,0,0,0,0,0,0,
0,0,0,0,0,0,0,0,0,0,0,0,
0,0,0,0,0,0,0,0,0,0,0,0
</data>
 </layer>
 <layer id="7" name="objects3" width="12" height="12">
  <data encoding="csv">
0,0,0,0,0,0,0,0,0,0,0,0,
691,692,694,0,358,359,0,0,0,585,212,213,
739,740,742,164,406,407,0,0,0,633,308,309,
0,0,0,0,0,0,589,0,0,0,0,250,
0,0,0,0,0,0,637,0,0,0,304,298,
0,0,0,0,0,0,0,0,0,0,0,0,
0,0,0,0,0,0,0,0,0,0,0,0,
0,0,0,0,0,0,0,0,0,0,0,0,
0,0,0,0,0,0,349,350,351,0,0,0,
0,0,0,0,0,0,397,398,399,0,0,0,
0,0,0,0,0,0,445,446,447,0,0,0,
0,0,0,0,0,0,0,0,0,0,0,0
</data>
 </layer>
 <layer id="6" name="walls3" width="12" height="12">
  <data encoding="csv">
0,0,0,0,0,625,629,0,0,0,0,0,
0,0,0,0,0,625,629,0,0,0,0,0,
0,0,0,0,0,625,629,0,0,0,0,0,
0,0,0,0,0,625,629,0,0,0,0,0,
0,0,0,0,0,625,629,0,0,0,0,0,
97,0,0,97,97,97,97,0,0,97,97,97,
145,0,0,145,145,145,145,0,0,145,145,145,
0,0,0,0,0,0,0,0,0,0,0,0,
0,0,0,0,0,0,0,0,0,0,0,0,
0,0,0,0,0,0,0,0,0,0,0,0,
0,0,0,0,0,0,0,0,0,0,0,0,
0,0,0,0,0,0,0,0,0,0,0,0
</data>
 </layer>
 <layer id="8" name="curtains" width="12" height="12">
  <data encoding="csv">
0,0,0,0,0,0,0,105,106,0,0,450,
0,0,0,0,0,0,0,153,154,0,0,498,
0,0,0,0,0,0,0,0,0,0,0,0,
0,0,0,0,0,0,0,0,0,0,0,0,
0,0,0,0,0,0,0,0,0,0,0,0,
0,0,0,0,491,10,0,0,0,587,588,0,
0,0,0,0,539,58,0,0,0,635,636,0,
0,0,0,0,0,0,0,0,0,0,0,0,
0,0,0,0,0,0,0,0,0,0,0,0,
0,0,0,0,0,0,0,499,0,0,0,0,
0,0,0,0,0,0,0,448,0,0,0,0,
0,0,0,0,0,0,0,0,0,0,0,0
</data>
 </layer>
 <layer id="9" name="stairs" width="12" height="12">
  <data encoding="csv">
0,0,0,0,0,0,0,0,0,0,0,0,
0,0,0,0,0,0,0,0,0,0,0,0,
0,0,0,0,0,0,0,0,0,0,0,0,
0,0,0,0,0,0,0,0,0,0,0,0,
0,0,0,0,0,0,0,0,0,0,0,0,
0,0,0,0,0,0,0,0,0,0,0,0,
642,0,0,0,459,460,0,0,0,27,0,0,
690,0,0,0,507,508,0,0,0,0,0,74,
0,0,0,0,0,0,0,0,0,0,0,0,
0,0,0,0,0,0,0,0,0,0,0,0,
0,0,0,0,0,0,0,0,0,0,0,0,
0,0,0,0,0,0,0,0,0,0,0,0
</data>
 </layer>
 <layer id="10" name="fuck" width="12" height="12">
  <data encoding="csv">
0,0,0,0,0,0,0,0,0,0,0,0,
0,0,0,0,0,0,0,0,0,0,0,0,
0,0,0,0,0,0,0,0,0,0,0,0,
0,0,0,0,0,0,0,0,0,0,0,0,
0,0,0,0,0,0,0,0,0,0,0,0,
0,0,0,0,0,0,0,0,0,0,0,0,
0,0,0,0,0,0,0,0,0,0,0,0,
0,0,0,0,0,0,0,0,0,0,0,546,
0,0,0,0,0,0,0,0,0,0,0,594,
0,0,0,0,0,0,0,0,0,0,0,0,
0,0,0,0,0,0,0,0,0,0,0,0,
0,0,0,0,0,0,0,0,0,0,0,0
</data>
 </layer>
 <layer id="5" name="walls2" width="12" height="12">
  <data encoding="csv">
676,723,723,723,723,674,676,723,723,723,723,674,
629,0,0,0,0,0,0,0,0,0,0,625,
629,0,0,0,0,0,0,0,0,0,0,625,
629,0,0,0,0,0,0,0,0,0,0,625,
629,0,0,0,0,0,0,0,0,0,0,625,
629,0,0,0,0,0,0,0,0,0,0,625,
629,0,0,0,0,0,0,0,0,0,0,625,
629,0,0,0,0,0,0,0,0,0,0,625,
629,0,0,0,0,0,0,0,0,0,0,625,
629,0,0,0,0,0,0,0,0,0,0,625,
629,0,0,0,0,0,0,0,0,0,0,625,
580,0,0,531,531,531,531,531,531,531,531,578
</data>
 </layer>
</map>
